web/assets/img/functions/520_28.svg

<svg id="vector" xmlns="http://www.w3.org/2000/svg" width="512" height="512" viewBox="0 0 512 512">
    <defs>
        <clipPath id="clip_path_0">
            <path d="M0,0h512v512h-512z"/>
        </clipPath>
    </defs>
    <g id="g_0">
        <path fill="#000000"
              d="M50,128V383C50,385.65 48.95,388.2 47.07,390.07C45.2,391.95 42.65,393 40,393C37.35,393 34.8,391.95 32.93,390.07C31.05,388.2 30,385.65 30,383V128C30,125.35 31.05,122.8 32.93,120.93C34.8,119.05 37.35,118 40,118C42.65,118 45.2,119.05 47.07,120.93C48.95,122.8 50,125.35 50,128Z"
              clip-path="url(#clip_path_0)"/>
        <path fill="#000000"
              d="M242,128V383C242,385.65 240.95,388.2 239.07,390.07C237.2,391.95 234.65,393 232,393C229.35,393 226.8,391.95 224.93,390.07C223.05,388.2 222,385.65 222,383V128C222,125.35 223.05,122.8 224.93,120.93C226.8,119.05 229.35,118 232,118C234.65,118 237.2,119.05 239.07,120.93C240.95,122.8 242,125.35 242,128Z"/>
        <path fill="#000000"
              d="M434,128V383C434,385.65 432.95,388.2 431.07,390.07C429.2,391.95 426.65,393 424,393C421.35,393 418.8,391.95 416.93,390.07C415.05,388.2 414,385.65 414,383V128C414,125.35 415.05,122.8 416.93,120.93C418.8,119.05 421.35,118 424,118C426.65,118 429.2,119.05 431.07,120.93C432.95,122.8 434,125.35 434,128Z"/>
        <path fill="#000000"
              d="M290,168V343C290,345.65 288.95,348.2 287.07,350.07C285.2,351.95 282.65,353 280,353C277.35,353 274.8,351.95 272.93,350.07C271.05,348.2 270,345.65 270,343V168C270,165.35 271.05,162.8 272.93,160.93C274.8,159.05 277.35,158 280,158C282.65,158 285.2,159.05 287.07,160.93C288.95,162.8 290,165.35 290,168Z"/>
        <path fill="#000000"
              d="M386,168V343C386,345.65 384.95,348.2 383.07,350.07C381.2,351.95 378.65,353 376,353C373.35,353 370.8,351.95 368.93,350.07C367.05,348.2 366,345.65 366,343V168C366,165.35 367.05,162.8 368.93,160.93C370.8,159.05 373.35,158 376,158C378.65,158 381.2,159.05 383.07,160.93C384.95,162.8 386,165.35 386,168Z"/>
        <path fill="#000000"
              d="M338,200V311C338,313.65 336.95,316.2 335.07,318.07C333.2,319.95 330.65,321 328,321C325.35,321 322.8,319.95 320.93,318.07C319.05,316.2 318,313.65 318,311V200C318,197.35 319.05,194.8 320.93,192.93C322.8,191.05 325.35,190 328,190C330.65,190 333.2,191.05 335.07,192.93C336.95,194.8 338,197.35 338,200Z"/>
        <path fill="#000000"
              d="M98,64V447C98,449.65 96.95,452.2 95.07,454.07C93.2,455.95 90.65,457 88,457C85.35,457 82.8,455.95 80.93,454.07C79.05,452.2 78,449.65 78,447V64C78,61.35 79.05,58.8 80.93,56.93C82.8,55.05 85.35,54 88,54C90.65,54 93.2,55.05 95.07,56.93C96.95,58.8 98,61.35 98,64Z"/>
        <path fill="#000000"
              d="M194,64V447C194,449.65 192.95,452.2 191.07,454.07C189.2,455.95 186.65,457 184,457C181.35,457 178.8,455.95 176.93,454.07C175.05,452.2 174,449.65 174,447V64C174,61.35 175.05,58.8 176.93,56.93C178.8,55.05 181.35,54 184,54C186.65,54 189.2,55.05 191.07,56.93C192.95,58.8 194,61.35 194,64Z"/>
        <path fill="#000000"
              d="M482,64V447C482,449.65 480.95,452.2 479.07,454.07C477.2,455.95 474.65,457 472,457C469.35,457 466.8,455.95 464.93,454.07C463.05,452.2 462,449.65 462,447V64C462,61.35 463.05,58.8 464.93,56.93C466.8,55.05 469.35,54 472,54C474.65,54 477.2,55.05 479.07,56.93C480.95,58.8 482,61.35 482,64Z"/>
        <path fill="#000000"
              d="M146,10V501C146,503.65 144.95,506.2 143.07,508.07C141.2,509.95 138.65,511 136,511C133.35,511 130.8,509.95 128.93,508.07C127.05,506.2 126,503.65 126,501V10C126,7.35 127.05,4.8 128.93,2.93C130.8,1.05 133.35,0 136,0C138.65,0 141.2,1.05 143.07,2.93C144.95,4.8 146,7.35 146,10Z"/>
        <path fill="#00D151"
              d="M502,266H10C7.35,266 4.8,264.95 2.93,263.07C1.05,261.2 0,258.65 0,256C0,253.35 1.05,250.8 2.93,248.93C4.8,247.05 7.35,246 10,246H502C504.65,246 507.2,247.05 509.07,248.93C510.95,250.8 512,253.35 512,256C512,258.65 510.95,261.2 509.07,263.07C507.2,264.95 504.65,266 502,266Z"/>
    </g>
</svg>

<?xml version="1.0" encoding="utf-8"?>
<!-- Generator: Adobe Illustrator 28.2.0, SVG Export Plug-In . SVG Version: 6.00 Build 0)  -->
<svg version="1.1" id="vector" xmlns="http://www.w3.org/2000/svg" xmlns:xlink="http://www.w3.org/1999/xlink" x="0px" y="0px"
	 viewBox="0 0 512 512" style="enable-background:new 0 0 512 512;" xml:space="preserve">
<style type="text/css">
	.st0{clip-path:url(#SVGID_00000042710095538399291970000004907693448476422558_);}
	.st1{fill:#33B0DF;}
</style>
<g id="g_0">
	<g>
		<defs>
			<rect id="SVGID_1_" y="0" width="512" height="512"/>
		</defs>
		<clipPath id="SVGID_00000056427473169921166280000001571809143928089475_">
			<use xlink:href="#SVGID_1_"  style="overflow:visible;"/>
		</clipPath>
		<path style="clip-path:url(#SVGID_00000056427473169921166280000001571809143928089475_);" d="M50,128v255c0,2.6-1,5.2-2.9,7.1
			c-1.9,1.9-4.4,2.9-7.1,2.9s-5.2-1-7.1-2.9c-1.9-1.9-2.9-4.4-2.9-7.1V128c0-2.7,1-5.2,2.9-7.1c1.9-1.9,4.4-2.9,7.1-2.9
			s5.2,1.1,7.1,2.9C49,122.8,50,125.3,50,128z"/>
	</g>
	<path d="M242,128v255c0,2.6-1.1,5.2-2.9,7.1c-1.9,1.9-4.4,2.9-7.1,2.9s-5.2-1-7.1-2.9c-1.9-1.9-2.9-4.4-2.9-7.1V128
		c0-2.7,1.1-5.2,2.9-7.1c1.9-1.9,4.4-2.9,7.1-2.9s5.2,1.1,7.1,2.9C240.9,122.8,242,125.3,242,128z"/>
	<path d="M434,128v255c0,2.6-1,5.2-2.9,7.1c-1.9,1.9-4.4,2.9-7.1,2.9s-5.2-1-7.1-2.9c-1.9-1.9-2.9-4.4-2.9-7.1V128
		c0-2.7,1-5.2,2.9-7.1c1.9-1.9,4.4-2.9,7.1-2.9s5.2,1.1,7.1,2.9C433,122.8,434,125.3,434,128z"/>
	<path d="M290,168v175c0,2.6-1,5.2-2.9,7.1c-1.9,1.9-4.4,2.9-7.1,2.9s-5.2-1-7.1-2.9c-1.9-1.9-2.9-4.4-2.9-7.1V168
		c0-2.6,1-5.2,2.9-7.1c1.9-1.9,4.4-2.9,7.1-2.9s5.2,1.1,7.1,2.9C289,162.8,290,165.4,290,168z"/>
	<path d="M386,168v175c0,2.6-1,5.2-2.9,7.1c-1.9,1.9-4.4,2.9-7.1,2.9s-5.2-1-7.1-2.9c-1.9-1.9-2.9-4.4-2.9-7.1V168
		c0-2.6,1-5.2,2.9-7.1c1.9-1.9,4.4-2.9,7.1-2.9s5.2,1.1,7.1,2.9C385,162.8,386,165.4,386,168z"/>
	<path d="M338,200v111c0,2.6-1,5.2-2.9,7.1c-1.9,1.9-4.4,2.9-7.1,2.9s-5.2-1-7.1-2.9c-1.9-1.9-2.9-4.4-2.9-7.1V200
		c0-2.6,1-5.2,2.9-7.1c1.9-1.9,4.4-2.9,7.1-2.9s5.2,1.1,7.1,2.9C337,194.8,338,197.4,338,200z"/>
	<path d="M98,64v383c0,2.6-1.1,5.2-2.9,7.1c-1.9,1.9-4.4,2.9-7.1,2.9s-5.2-1-7.1-2.9c-1.9-1.9-2.9-4.4-2.9-7.1V64
		c0-2.7,1.1-5.2,2.9-7.1C82.8,55,85.3,54,88,54s5.2,1,7.1,2.9C96.9,58.8,98,61.3,98,64z"/>
	<path d="M194,64v383c0,2.6-1.1,5.2-2.9,7.1c-1.9,1.9-4.4,2.9-7.1,2.9s-5.2-1-7.1-2.9c-1.9-1.9-2.9-4.4-2.9-7.1V64
		c0-2.7,1.1-5.2,2.9-7.1c1.9-1.9,4.4-2.9,7.1-2.9s5.2,1,7.1,2.9C192.9,58.8,194,61.3,194,64z"/>
	<path d="M482,64v383c0,2.6-1,5.2-2.9,7.1c-1.9,1.9-4.4,2.9-7.1,2.9s-5.2-1-7.1-2.9c-1.9-1.9-2.9-4.4-2.9-7.1V64
		c0-2.7,1-5.2,2.9-7.1c1.9-1.9,4.4-2.9,7.1-2.9s5.2,1,7.1,2.9C481,58.8,482,61.3,482,64z"/>
	<path d="M146,10v491c0,2.6-1.1,5.2-2.9,7.1c-1.9,1.9-4.4,2.9-7.1,2.9s-5.2-1-7.1-2.9c-1.9-1.9-2.9-4.4-2.9-7.1V10
		c0-2.7,1.1-5.2,2.9-7.1C130.8,1,133.4,0,136,0s5.2,1,7.1,2.9C144.9,4.8,146,7.3,146,10z"/>
	<path class="st1" d="M502,266H10c-2.7,0-5.2-1-7.1-2.9C1,261.2,0,258.6,0,256s1-5.2,2.9-7.1c1.9-1.9,4.4-2.9,7.1-2.9h492
		c2.6,0,5.2,1.1,7.1,2.9c1.9,1.9,2.9,4.4,2.9,7.1s-1,5.2-2.9,7.1C507.2,265,504.6,266,502,266z"/>
</g>
</svg>
